Numix/24/mimetypes/application-vnd.geogebra.file.svg

<?xml version="1.0" encoding="UTF-8" standalone="no"?>
<svg
   xmlns:dc="http://purl.org/dc/elements/1.1/"
   xmlns:cc="http://creativecommons.org/ns#"
   xmlns:rdf="http://www.w3.org/1999/02/22-rdf-syntax-ns#"
   xmlns:svg="http://www.w3.org/2000/svg"
   xmlns="http://www.w3.org/2000/svg"
   xmlns:sodipodi="http://sodipodi.sourceforge.net/DTD/sodipodi-0.dtd"
   xmlns:inkscape="http://www.inkscape.org/namespaces/inkscape"
   width="24"
   height="24"
   viewBox="0 0 24 24"
   id="svg2"
   version="1.1"
   inkscape:version="0.91 r13725"
   sodipodi:docname="application-vnd.geogebra.file.svg">
  <metadata
     id="metadata16">
    <rdf:RDF>
      <cc:Work
         rdf:about="">
        <dc:format>image/svg+xml</dc:format>
        <dc:type
           rdf:resource="http://purl.org/dc/dcmitype/StillImage" />
        <dc:title />
      </cc:Work>
    </rdf:RDF>
  </metadata>
  <defs
     id="defs14">
    <clipPath
       id="clipPath-258929573">
      <g
         transform="translate(0,-1004.3622)"
         id="g17">
        <path
           inkscape:connector-curvature="0"
           d="m -24,13 c 0,1.105 -0.672,2 -1.5,2 -0.828,0 -1.5,-0.895 -1.5,-2 0,-1.105 0.672,-2 1.5,-2 0.828,0 1.5,0.895 1.5,2 z"
           transform="matrix(15.333333,0,0,11.5,414.99999,878.8622)"
           style="fill:#1890d0"
           id="path19" />
      </g>
    </clipPath>
  </defs>
  <sodipodi:namedview
     pagecolor="#ffffff"
     bordercolor="#666666"
     borderopacity="1"
     objecttolerance="10"
     gridtolerance="10"
     guidetolerance="10"
     inkscape:pageopacity="0"
     inkscape:pageshadow="2"
     inkscape:window-width="1920"
     inkscape:window-height="1013"
     id="namedview12"
     showgrid="true"
     inkscape:zoom="45.254834"
     inkscape:cx="9.745498"
     inkscape:cy="9.0895651"
     inkscape:window-x="0"
     inkscape:window-y="27"
     inkscape:window-maximized="1"
     inkscape:current-layer="svg2">
    <inkscape:grid
       type="xygrid"
       id="grid3004"
       empspacing="5"
       visible="true"
       enabled="true"
       snapvisiblegridlinesonly="true" />
  </sodipodi:namedview>
  <path
     style="fill:#6f72db;fill-opacity:1"
     d="M 5,1 C 4.527343,1 4,1.527344 4,2 l 0,20 c 0,0.445312 0.554687,1 1,1 l 14,0 c 0.445313,0 0.992367,-0.554753 1,-1 L 20,6.9999998 14,1 Z"
     id="path4-7"
     inkscape:connector-curvature="0"
     sodipodi:nodetypes="ssssssccs" />
  <path
     style="fill:#000000;fill-opacity:0.19599998"
     d="M 15,6.9999998 20,12 20,6.9999998 Z"
     id="path6"
     inkscape:connector-curvature="0"
     sodipodi:nodetypes="cccc" />
  <path
     style="fill:#ffffff;fill-opacity:0.39200003"
     d="m 14,1 6,5.9999998 -5,0 c -0.445312,0 -1,-0.554688 -1,-1 z"
     id="path8"
     inkscape:connector-curvature="0"
     sodipodi:nodetypes="ccssc" />
  <path
     style="color:#000000;font-style:normal;font-variant:normal;font-weight:normal;font-stretch:normal;font-size:medium;line-height:normal;font-family:sans-serif;text-indent:0;text-align:start;text-decoration:none;text-decoration-line:none;text-decoration-style:solid;text-decoration-color:#000000;letter-spacing:normal;word-spacing:normal;text-transform:none;direction:ltr;block-progression:tb;writing-mode:lr-tb;baseline-shift:baseline;text-anchor:start;white-space:normal;clip-rule:nonzero;display:inline;overflow:visible;visibility:visible;opacity:1;isolation:auto;mix-blend-mode:normal;color-interpolation:sRGB;color-interpolation-filters:linearRGB;solid-color:#000000;solid-opacity:1;fill:#ffffff;fill-opacity:1;fill-rule:nonzero;stroke:none;stroke-width:0.84568453;stroke-linecap:round;stroke-linejoin:round;stroke-miterlimit:4;stroke-dasharray:none;stroke-dashoffset:0;stroke-opacity:1;color-rendering:auto;image-rendering:auto;shape-rendering:auto;text-rendering:auto;enable-background:accumulate"
     d="M 15 8 C 14.258801 8 13.616937 8.4116558 13.271484 9.0136719 C 11.780059 9.0776043 10.354588 9.8818788 9.4550781 11.058594 C 9.3082191 11.024021 9.157124 11 9 11 C 7.898785 11 7 11.898785 7 13 C 7 14.024352 7.7804807 14.863008 8.7753906 14.976562 C 9.2764699 16.163852 10.452282 16.978192 11.974609 17 C 12.385976 17.005891 12.790852 16.934375 13.1875 16.830078 C 13.504454 17.517833 14.195585 18 15 18 C 16.101215 18 17 17.101215 17 16 C 17 15.409154 16.736091 14.882365 16.326172 14.515625 C 16.605202 14.064123 16.826925 13.58058 16.927734 13.060547 C 17.073197 12.310166 16.975898 11.61537 16.714844 11.011719 C 16.891619 10.713679 17 10.370293 17 10 C 17 8.8987854 16.101215 8 15 8 z M 15 8.5664062 C 15.795073 8.5664062 16.433594 9.2049275 16.433594 10 C 16.433594 10.795072 15.795073 11.433594 15 11.433594 C 14.204927 11.433594 13.566406 10.795072 13.566406 10 C 13.566406 9.2049275 14.204927 8.5664062 15 8.5664062 z M 13.015625 9.8515625 C 13.011868 9.9014337 13 9.9491988 13 10 C 13 11.101215 13.898785 12 15 12 C 15.37496 12 15.722906 11.889901 16.023438 11.708984 C 16.148238 12.118612 16.184805 12.569036 16.091797 13.048828 C 16.017905 13.430009 15.857263 13.785069 15.660156 14.121094 C 15.452457 14.047678 15.232237 14 15 14 C 13.898785 14 13 14.898785 13 16 C 13 16.020042 13.005268 16.03869 13.005859 16.058594 C 12.720709 16.125428 12.43115 16.174167 12.134766 16.169922 C 11.035425 16.154173 10.176873 15.636652 9.7207031 14.859375 C 10.466843 14.568532 11 13.84669 11 13 C 11 12.338088 10.672051 11.75309 10.173828 11.388672 C 10.859936 10.536234 11.897786 9.9425457 13.015625 9.8515625 z M 9 11.566406 C 9.795073 11.566406 10.433594 12.204928 10.433594 13 C 10.433594 13.795072 9.795073 14.433594 9 14.433594 C 8.204927 14.433594 7.5664063 13.795072 7.5664062 13 C 7.5664062 12.204928 8.204927 11.566406 9 11.566406 z M 15 14.566406 C 15.795073 14.566406 16.433594 15.204928 16.433594 16 C 16.433594 16.795072 15.795073 17.433594 15 17.433594 C 14.204927 17.433594 13.566406 16.795072 13.566406 16 C 13.566406 15.204928 14.204927 14.566406 15 14.566406 z "
     id="path3923" />
</svg>

<svg xmlns="http://www.w3.org/2000/svg" viewBox="0 0 24 24">
 <path d="m 5 1 c -0.473 0 -1 0.527 -1 1 l 0 20 c 0 0.445 0.555 1 1 1 l 14 0 c 0.445 0 0.992 -0.555 1 -1 l 0 -15 -6 -6" style="fill:#6f72db;fill-opacity:1"/>
 <path d="m 15 7 5 5 0 -5" style="fill:#000;fill-opacity:0.196"/>
 <path d="m 14 1 6 6 -5 0 c -0.445 0 -1 -0.555 -1 -1 z" style="fill:#fff;fill-opacity:0.392"/>
 <path d="m 15 8 c -0.741 0 -1.383 0.412 -1.729 1.014 c -1.491 0.064 -2.917 0.868 -3.816 2.045 c -0.147 -0.035 -0.298 -0.059 -0.455 -0.059 c -1.101 0 -2 0.899 -2 2 c 0 1.024 0.78 1.863 1.775 1.977 c 0.501 1.187 1.677 2 3.199 2.023 c 0.411 0.006 0.816 -0.066 1.213 -0.17 c 0.317 0.688 1.01 1.17 1.813 1.17 c 1.101 0 2 -0.899 2 -2 c 0 -0.591 -0.264 -1.118 -0.674 -1.484 c 0.279 -0.452 0.501 -0.935 0.602 -1.455 c 0.145 -0.75 0.048 -1.445 -0.213 -2.049 c 0.177 -0.298 0.285 -0.641 0.285 -1.012 c 0 -1.101 -0.899 -2 -2 -2 z m 0 0.566 c 0.795 0 1.434 0.639 1.434 1.434 c 0 0.795 -0.639 1.434 -1.434 1.434 c -0.795 0 -1.434 -0.639 -1.434 -1.434 c 0 -0.795 0.639 -1.434 1.434 -1.434 z m -1.984 1.285 c -0.004 0.05 -0.016 0.098 -0.016 0.148 c 0 1.101 0.899 2 2 2 c 0.375 0 0.723 -0.11 1.023 -0.291 c 0.125 0.41 0.161 0.86 0.068 1.34 c -0.074 0.381 -0.235 0.736 -0.432 1.072 c -0.208 -0.073 -0.428 -0.121 -0.66 -0.121 c -1.101 0 -2 0.899 -2 2 c 0 0.02 0.005 0.039 0.006 0.059 c -0.285 0.067 -0.575 0.116 -0.871 0.111 c -1.099 -0.016 -1.958 -0.533 -2.414 -1.311 c 0.746 -0.291 1.279 -1.013 1.279 -1.859 c 0 -0.662 -0.328 -1.247 -0.826 -1.611 c 0.686 -0.852 1.724 -1.446 2.842 -1.537 z m -4.02 1.715 c 0.795 0 1.434 0.639 1.434 1.434 c 0 0.795 -0.639 1.434 -1.434 1.434 c -0.795 0 -1.434 -0.639 -1.434 -1.434 c 0 -0.795 0.639 -1.434 1.434 -1.434 z m 6 3 c 0.795 0 1.434 0.639 1.434 1.434 c 0 0.795 -0.639 1.434 -1.434 1.434 c -0.795 0 -1.434 -0.639 -1.434 -1.434 c 0 -0.795 0.639 -1.434 1.434 -1.434 z" mix-blend-mode="normal" isolation="auto" white-space="normal" solid-opacity="1" solid-color="#000000" style="visibility:visible;shape-rendering:auto;color-interpolation-filters:linearRGB;fill:#fff;opacity:1;image-rendering:auto;fill-opacity:1;stroke:none;display:inline;color:#000;fill-rule:nonzero;color-rendering:auto;color-interpolation:sRGB"/>
</svg>
